X:1

T:Whitingham Fair

M:6/8

L:1/8

R:Air

S:Bruce & Stokoe – Northumbrian Minstrelsy  (1882)

Z:AK/Fiddler’s Companion

K:E Minor

E2E GAB|ABA F3|EFE GAB|BcA B2e|e2B BAG|ABd FED|

E2E GAB|AFG E3||

 

WHITTINGHAM GREEN LANE. English, Waltz. G Major. Standard tuning. AAB. Northumbrian Pipers Tune Book, vol. 1, 1936. Raven (English Country Dance Tunes), 1984; pg. 135.

 

WHITTINGHAM VALE HORNPIPE, THE. English, Hornpipe. England, Northumberland. G Major. Standard tuning. AA'BB'. Composed by Tom Carruthers. Hall & Stafford (Charlton Memorial Tune Book), 1974; pg. 48.

